!!!COM: Bach, Johann Sebastian
!!!CDT: 1685/3//-1750/7/28/
!!!OTL@@DE: Lobt Gott, ihr Christen, allzugleich
!!!AGN: 4-Part Chorale
!!!SCT: BH 054
!!!SCT: BWV 151
**harm	**root	**kern	**kern	**kern	**kern
!	!	!bass	!tenor	!alto	!soprno
*	*Iorgan	*Iorgan	*Iorgan	*Iorgan	*Iorgan
*	*	*clefF4	*clefF4	*clefG2	*clefG2
*k[b-e-a-d-]	*k[b-e-a-d-]	*k[b-e-a-d-]	*k[b-e-a-d-]	*k[b-e-a-d-]	*k[b-e-a-d-]
*A-:	*A-:	*A-:	*A-:	*A-:	*A-:
*M4/4	*M4/4	*M4/4	*M4/4	*M4/4	*M4/4
*met(c)	*met(c)	*met(c)	*met(c)	*met(c)	*met(c)
*MM60	*MM60	*MM60	*MM60	*MM60	*MM60
I	4GG	4A-	4c	4e-	4a-
=1	=1	=1	=1	=1	=1
Vb	4DD	4G	4B-	8e-	4ee-
.	.	.	.	8f	.
V7	4DD	4E-	8e-	4g	4ee-
.	.	.	8d-	.	.
I	4GG	8A-	8c	4a-	4ee-
.	.	8B-	8d-	.	.
Ib	4GG	4c	4e-	4a-	4ee-
=2	=2	=2	=2	=2	=2
IV	4CC	4D-	8d-	4a-	4ff
.	.	.	8c	.	.
V7	4DD	4E-	8B-	4g	8ee-
.	.	.	8e-	.	8dd-
I;	4GG;	4A-;	4e-;	4a-;	4cc;
Vb	4DD	4G	4e-	4b-	4b-
=3	=3	=3	=3	=3	=3
vi	4EE	4F	4A-	4a-	8cc
.	.	.	.	.	8dd
V	4DD	4E-	4B-	4g	4ee-
vib	4EE	4A-	4c	8f	4ff
.	.	.	.	8g	.
V7/V	4AA	4B-	4d	4a-	4ff
=4	=4	=4	=4	=4	=4
V;	2DD;	2E-;	2B-	2g;	2ee-;
r	4r	4r	4r	4r	4r
V7b	4DD	4G	8e-	4b-	4ee-
.	.	.	8d-	.	.
=5	=5	=5	=5	=5	=5
I	4GG	4A-	4c	4a-	4ee-
V7c	4DD	4B-	4d-	4g	4ee-
Ib	4GG	4c	4e-	4a-	4ee-
vi	4EE	4F	4f	4a-	8cc
.	.	.	.	.	8dd-
!!linebreak: 2
=6	=6	=6	=6	=6	=6
Ib	4GG	4C	4e-	4a-	4ee-
iib	4AA	4D-	4f	8b-	8dd-
.	.	.	.	8a-	8cc
V;	4DD;	4E-;	4B-;	4g;	4b-;
iii	4BB	4C	4c	4g	4ee-
=7	=7	=7	=7	=7	=7
IV7	8CC	8F	8c	8a-	4dd-
viio	8FF#	8G	8B-	4b-	.
I	4GG	4A-	8c	.	4cc
.	.	.	8d-	[8a-	.
V	4DD	4E-	4e-	8a-]	4b-
.	.	.	.	8f	.
viio7/VI	4DD#	4E	4d-	4g	4b-
=8	=8	=8	=8	=8	=8
vi	2EE	8F	4c	2a-	8a-
.	.	8G	.	.	8b-
.	.	8A-	4f	.	8cc
.	.	8B-	.	.	8dd-
iii;	4BB;	4c;	4e-;	4g;	4ee-;
I	4GG	4A-	4c	4a-	4ee-
=9	=9	=9	=9	=9	=9
IVb	4CC	4F	8d-	4a-	4dd-
.	.	.	8e-	.	.
vi7d	4EE	8E-	4f	4a-	8cc
.	.	8D-	.	.	8b-
Ic	4GG	4E-	4e-	4a-	4cc
V7	4DD	4E-	8e-	4g	4b-
.	.	.	8d-	.	.
=10	=10	=10	=10	=10	=10
I;	2.GG;	2.AA-;	2.c;	2.e-;	2.a-;
==	==	==	==	==	==
*-	*-	*-	*-	*-	*-
!!chor2scor: -l 2 -s 0.6 -o %b.pmx
!!!YEC: Copyright 2001 by Craig Stuart Sapp
!!!license: GNU General Public License (http://www.gnu.org/copyleft/gpl.html)
!!!SMA: 371 Bach Chorales, edited by Ludwig Erk, C.F. Peters
!!!PDT: 1850, 1865
!!!ONB: Harmony and Root analysis done manually by Craig Sapp
